icons/linear-new-other-cover-flow-banner.svg

<svg xmlns="http://www.w3.org/2000/svg" width="32px" height="32px" viewBox="0 0 32 32" version="1.1">
    <title>linear-new-other-cover-flow-banner</title>
    <g id="linear-new-other-cover-flow-banner" stroke-width="1" fill-rule="evenodd">
        <path d="M31,6 L31,26 C31,26.743382 30.2176875,27.2268777 29.5527864,26.8944272 L26,25.1177098 L26,22.8817098 L29,24.382 L29,7.618 L26,9.11770979 L26,6.88070979 L29.5527864,5.10557281 C30.2176875,4.77312226 31,5.25661798 31,6 Z M2.4472136,5.10557281 L6,6.88170979 L6,9.11770979 L3,7.618 L3,24.381 L6,22.8807098 L6,25.1177098 L2.4472136,26.8944272 C1.7823125,27.2268777 1,26.743382 1,26 L1,6 C1,5.25661798 1.7823125,4.77312226 2.4472136,5.10557281 Z M24,25 C24,25.5522847 23.5522847,26 23,26 L9,26 C8.44771525,26 8,25.5522847 8,25 L8,7 C8,6.44771525 8.44771525,6 9,6 L23,6 C23.5522847,6 24,6.44771525 24,7 L24,25 Z M22,8 L10,8 L10,24 L22,24 L22,8 Z" id="&#24418;&#29366;" fill-rule="nonzero" />
    </g>
</svg>

<svg xmlns="http://www.w3.org/2000/svg" viewBox="0 0 32 32"><path fill="currentColor" d="M31 6v20a1 1 0 0 1-1.447.894L26 25.118v-2.236l3 1.5V7.618l-3 1.5V6.88l3.553-1.775A1 1 0 0 1 31 6M2.447 5.106 6 6.882v2.236l-3-1.5v16.763l3-1.5v2.237l-3.553 1.776A1 1 0 0 1 1 26V6a1 1 0 0 1 1.447-.894M24 25a1 1 0 0 1-1 1H9a1 1 0 0 1-1-1V7a1 1 0 0 1 1-1h14a1 1 0 0 1 1 1zM22 8H10v16h12z"/></svg>
